Optical/Aktia.svg

<?xml version="1.0" encoding="UTF-8"?>
<svg width="57px" height="48px" viewBox="0 0 57 48" version="1.1" xmlns="http://www.w3.org/2000/svg" xmlns:xlink="http://www.w3.org/1999/xlink">
    <!-- Generator: Sketch 52.3 (67297) - http://www.bohemiancoding.com/sketch -->
    <title>Optical/Aktia</title>
    <desc>Created with Sketch.</desc>
    <g id="Optical/Aktia" stroke="none" stroke-width="1" fill="none" fill-rule="evenodd">
        <path d="M15.139693,32.732413 L12.3959306,32.732413 L10.9505636,28.6945092 L4.09110749,28.6945092 L2.67025248,32.732413 L3.60754867e-13,32.732413 L6.17348654,15.705348 L8.89267648,15.705348 L15.139693,32.732413 Z M10.1666401,26.4081178 L8.79472877,22.4918869 C8.37826503,21.2756168 7.6923898,19.3054022 7.49633353,18.5756361 C7.30033758,19.3054022 6.68789799,21.2512786 6.24694229,22.5162251 L4.87509129,26.4081178 L10.1666401,26.4081178 Z M28.2227594,32.732413 L25.478977,32.732413 L22.637267,26.3837197 L20.6773075,28.9620894 L20.6773075,32.732413 L18.1540532,32.732413 L18.1540532,16.3134432 L20.6773075,15 L20.6773075,23.0513856 C20.6773075,23.8297481 20.6527753,25.1431913 20.6527753,25.7756845 C20.9958235,25.2648622 21.6573878,24.2918342 22.0738314,23.683739 L24.7440173,19.9621737 L27.6102595,19.9621737 L24.3521059,24.2431778 L28.2227594,32.732413 Z M37.2361199,30.2026977 L36.942136,32.4162383 C36.3296361,32.7567452 35.4722167,33 34.4678053,33 C32.6793699,33 31.5770309,31.9053182 31.5770309,29.6189408 L31.5770309,22.2486249 L29.7397323,22.2486249 L29.7397323,19.9621737 L31.5770309,19.9621737 L31.5770309,16.3134432 L34.0513617,15 L34.0513617,19.9621737 L37.2361199,19.9621737 L37.2361199,22.2486249 L34.0513617,22.2486249 L34.0513617,29.1810132 C34.0513617,30.3729452 34.4432731,30.7134601 35.3742891,30.7134601 C36.0356523,30.7134601 36.7706119,30.4702779 37.2361199,30.2026977 Z M43.6768199,16.7026145 C43.6768199,17.5783697 42.9418602,18.3080559 42.0599086,18.3080559 C41.1534248,18.3080559 40.4184651,17.5783697 40.4184651,16.7026145 C40.4184651,15.8026808 41.1534248,15.0729147 42.0599086,15.0729147 C42.9418602,15.0729147 43.6768199,15.8026808 43.6768199,16.7026145 Z M43.3094406,32.732413 L40.7860455,32.732413 L40.7860455,19.9621737 L43.3094406,19.9621737 L43.3094406,32.732413 Z M57,32.732413 L54.5258704,32.732413 L54.5258704,31.4675544 C53.6439187,32.3432377 52.3943867,33 50.9980639,33 C48.9156446,33 46.5394426,31.8323975 46.5394426,28.6945092 C46.5394426,25.8486192 48.7443216,24.5594343 51.6594271,24.5594343 C52.8598947,24.5594343 53.8152418,24.7296818 54.5258704,25.0459384 L54.5258704,24.0972485 C54.5258704,22.7108108 53.6684509,21.9323683 52.1004029,21.9323683 C50.7774755,21.9323683 49.748733,22.1756304 48.7443216,22.735129 L47.7644424,20.8377692 C48.9892412,20.0837647 50.3612329,19.6945735 52.1739994,19.6945735 C55.0402416,19.6945735 57,21.0810312 57,23.9756574 L57,32.732413 Z M54.5258704,29.1080985 L54.5258704,27.2837333 C53.8397739,26.9432184 52.9578223,26.7242945 51.5860316,26.7242945 C49.9691204,26.7242945 48.9401768,27.4540606 48.9401768,28.6215945 C48.9401768,29.8864411 49.748733,30.7377983 51.4145075,30.7377983 C52.7619671,30.7377983 53.9377015,29.9107793 54.5258704,29.1080985 Z" id="Cropped/Aktia" fill="#009430"></path>
    </g>
</svg>

<svg width="57" height="48" xmlns="http://www.w3.org/2000/svg"><path d="M15.14 32.732h-2.744l-1.445-4.037H4.09l-1.42 4.037H0l6.173-17.027h2.72l6.247 17.027zm-4.973-6.324l-1.372-3.916c-.417-1.216-1.103-3.187-1.299-3.916-.196.73-.808 2.675-1.25 3.94l-1.37 3.892h5.29zm18.056 6.324h-2.744l-2.842-6.348-1.96 2.578v3.77h-2.523V16.313L20.677 15v8.051c0 .779-.024 2.092-.024 2.725.343-.511 1.004-1.484 1.42-2.092l2.671-3.722h2.866l-3.258 4.281 3.87 8.49zm9.013-2.53l-.294 2.214c-.612.34-1.47.584-2.474.584-1.789 0-2.891-1.095-2.891-3.381v-7.37H29.74v-2.287h1.837v-3.649L34.051 15v4.962h3.185v2.287h-3.185v6.932c0 1.192.392 1.532 1.323 1.532.662 0 1.397-.243 1.862-.51zm6.44-13.5c0 .876-.734 1.606-1.616 1.606-.907 0-1.642-.73-1.642-1.605 0-.9.735-1.63 1.642-1.63.882 0 1.617.73 1.617 1.63zm-.367 16.03h-2.523v-12.77h2.523v12.77zm13.691 0h-2.474v-1.264c-.882.875-2.132 1.532-3.528 1.532-2.082 0-4.459-1.168-4.459-4.305 0-2.846 2.205-4.136 5.12-4.136 1.2 0 2.156.17 2.867.487v-.949c0-1.386-.858-2.165-2.426-2.165-1.323 0-2.351.244-3.356.803l-.98-1.897c1.225-.754 2.597-1.143 4.41-1.143 2.866 0 4.826 1.386 4.826 4.28v8.757zm-2.474-3.624v-1.824c-.686-.34-1.568-.56-2.94-.56-1.617 0-2.646.73-2.646 1.898 0 1.264.809 2.116 2.475 2.116 1.347 0 2.523-.827 3.11-1.63z" fill="#009430" fill-rule="evenodd"/></svg>
